X:1
T:Title
L:1/8
Q:1/4=75
M:6/8
K:Ab
V:1 treble nm="Church Organ, Staff"
V:1
 E A2 ABA | B c2 eed | c B2 F B2 | A G2- G G2 | E A2 ABA | B c2 eed | c B2 F A2 | G A2- A A2 | %8
w: By~C.~Simper * * * *||||||||
 c d2 G G2 | d c2 A A2 | c B2 A G2 | A B2- B B2 | c/d/ e2 eed | c d2 ddc | B c2 A G2 | F E2- E E2 | %16
w: ||||||||
 z B>c BA>F | EB>c B A2- | Ac>d efe | cB>c =d e2- | eB>c BA>F | EB>c B A2- | AA>d feB | %23
w: |||||||
 (4:3:5A-A/B/-BF G A2 |] %24
w: |

